packages/kaspersky-hexa-ui-icons/src/iconsSVGs/16/KasperskyClub.svg

<svg width="16" height="16" viewBox="0 0 16 16" fill="none" xmlns="http://www.w3.org/2000/svg">
<path d="M4.90977 8C4.90977 6.16699 6.3928 4.7757 8.1022 4.7757C9.19286 4.7757 10.1914 5.34207 10.7713 6.22819C10.8299 6.3177 10.9279 6.37532 11.0349 6.37532H13.5787C13.7781 6.37532 13.9219 6.18415 13.8543 5.99659C13.0219 3.69035 10.7922 2 8.1022 2C4.67832 2 2 4.73857 2 8C2 11.2614 4.67832 14 8.1022 14C10.8261 14 13.0782 12.2667 13.8851 9.91574C13.9493 9.72888 13.8056 9.54096 13.6081 9.54096H11.0878C10.9776 9.54096 10.8772 9.60204 10.8195 9.69591C10.2477 10.6255 9.22369 11.2243 8.1022 11.2243C6.3928 11.2243 4.90977 9.83301 4.90977 8Z" fill="black"/>
</svg>

<svg xmlns="http://www.w3.org/2000/svg" width="16" height="16" fill="none" viewBox="0 0 16 16"><path fill="#000" d="M4.9098 8c0-1.833 1.483-3.2243 3.1924-3.2243 1.0907 0 2.0892.5664 2.6691 1.4525.0586.0895.1566.1471.2636.1471h2.5438c.1994 0 .3432-.1912.2756-.3787C13.0219 3.6904 10.7922 2 8.1022 2 4.6783 2 2 4.7386 2 8s2.6783 6 6.1022 6c2.7239 0 4.976-1.7333 5.7829-4.0843.0642-.1868-.0795-.3747-.277-.3747h-2.5203c-.1102 0-.2106.061-.2683.155-.5718.9295-1.5958 1.5283-2.7173 1.5283-1.7094 0-3.1924-1.3913-3.1924-3.2243"/></svg>
